X:57
T:Duke and no Duke
M:6/8
L:1/8
B:Thompson's Compleat Collection of 200 Favourite Country Dances, vol. 1 (London, 1757)
Z:Transcribed and edited by Fynnian Titford-Mock, 2007
Z:abc's:AK/Fiddler's Companion
K:F
FGF cdc|fed c3|dcB cBA|FGF GEC|FGF cdc|fed agf|edc Gc=B|c3 C3:|
|:cdc agf|_edc "tr"B>AB|BcB gf=e|dcB Aff|dBf dBf|cAf cAf|AcF GBE|F3 f3:|

